d1 $ sound "rm jazz house dialphone2:5 [hh cp tabla trump] future gabba newnotes*3"
d2 $ sound "gabba:1 pluck [future hh cp]*3"
d3 $ sound "wobble:2 feel:3"
d4 $ sound "trump tink bd:2 jazz"
d5 $ sound "koy perc off sn"
d6 $ sound "metal crow [ho hh cp]"